assets/images/svgs/minus-alt.svg

<svg version="1.1" xmlns="http://www.w3.org/2000/svg" xmlns:xlink="http://www.w3.org/1999/xlink" width="16" height="16" viewBox="0 0 32 32">
<path d="M16 0c-8.836 0-16 7.164-16 16s7.164 16 16 16 16-7.164 16-16-7.164-16-16-16zM24 18h-16v-4h16v4z" fill="#ffffff"></path>
</svg>

<?xml version="1.0" encoding="UTF-8" standalone="no"?>
<svg width="32px" height="32px" viewBox="0 0 32 32" version="1.1" xmlns="http://www.w3.org/2000/svg" xmlns:xlink="http://www.w3.org/1999/xlink" xmlns:sketch="http://www.bohemiancoding.com/sketch/ns">
    <title>Slice 1</title>
    <description>Created with Sketch (http://www.bohemiancoding.com/sketch)</description>
    <defs></defs>
    <g id="Page-1" stroke="none" stroke-width="1" fill="none" fill-rule="evenodd" sketch:type="MSPage">
        <path d="M16,0 C7.164,0 0,7.164 0,16 C0,24.836 7.164,32 16,32 C24.836,32 32,24.836 32,16 C32,7.164 24.836,0 16,0 L16,0 Z M24,18 L8,18 L8,14 L24,14 L24,18 L24,18 Z" id="Shape" fill="#FFFFFF" sketch:type="MSShapeGroup"></path>
    </g>
</svg>
